wilib/img/bg/bg_azul.svg

<svg xmlns="http://www.w3.org/2000/svg" version="1.1" xmlns:xlink="http://www.w3.org/1999/xlink" preserveAspectRatio="none" x="0px" y="0px" width="788px" height="383px" viewBox="0 0 788 383">
<defs>
<linearGradient id="Gradient_1" gradientUnits="userSpaceOnUse" x1="559.5125" y1="767.8" x2="1173.7875" y2="197.59999999999997" spreadMethod="pad">
<stop  offset="1.1764705882352942%" stop-color="#1F55FF"/>

<stop  offset="88.62745098039215%" stop-color="#3C99FF"/>
</linearGradient>

<linearGradient id="Gradient_2" gradientUnits="userSpaceOnUse" x1="319.66249999999997" y1="441.3" x2="685.6375" y2="441.3" spreadMethod="pad">
<stop  offset="0%" stop-color="#1F55FF" stop-opacity="0"/>

<stop  offset="100%" stop-color="#9CB4FF" stop-opacity="0.27058823529411763"/>
</linearGradient>

<linearGradient id="Gradient_3" gradientUnits="userSpaceOnUse" x1="898" y1="850.7375" x2="1005.3" y2="500.86249999999995" spreadMethod="pad">
<stop  offset="0%" stop-color="#1F55FF" stop-opacity="0"/>

<stop  offset="100%" stop-color="#9CB4FF" stop-opacity="0.5019607843137255"/>
</linearGradient>

<linearGradient id="Gradient_4" gradientUnits="userSpaceOnUse" x1="1097.5875" y1="657.525" x2="457.8125" y2="523.975" spreadMethod="pad">
<stop  offset="0%" stop-color="#1F55FF" stop-opacity="0"/>

<stop  offset="100%" stop-color="#51E7FF" stop-opacity="0.4980392156862745"/>
</linearGradient>

<linearGradient id="Gradient_5" gradientUnits="userSpaceOnUse" x1="998.1375" y1="770.95" x2="757.1624999999999" y2="372.75" spreadMethod="pad">
<stop  offset="0%" stop-color="#1F55FF" stop-opacity="0"/>

<stop  offset="100%" stop-color="#9CB4FF" stop-opacity="0.3215686274509804"/>
</linearGradient>

<linearGradient id="Gradient_6" gradientUnits="userSpaceOnUse" x1="1364.1375" y1="826.85" x2="1123.1625000000001" y2="428.65" spreadMethod="pad">
<stop  offset="0%" stop-color="#1F55FF" stop-opacity="0"/>

<stop  offset="100%" stop-color="#9CB4FF" stop-opacity="0.5019607843137255"/>
</linearGradient>

<linearGradient id="Gradient_7" gradientUnits="userSpaceOnUse" x1="1289.775" y1="46.71249999999998" x2="993.5250000000001" y2="405.6875" spreadMethod="pad">
<stop  offset="0%" stop-color="#1F55FF" stop-opacity="0"/>

<stop  offset="100%" stop-color="#9AD5FF" stop-opacity="0.32941176470588235"/>
</linearGradient>

<linearGradient id="Gradient_8" gradientUnits="userSpaceOnUse" x1="373.71250000000003" y1="484.8" x2="739.6875" y2="484.8" spreadMethod="pad">
<stop  offset="0%" stop-color="#1F55FF" stop-opacity="0"/>

<stop  offset="100%" stop-color="#9CB4FF" stop-opacity="0.27058823529411763"/>
</linearGradient>

<linearGradient id="Gradient_9" gradientUnits="userSpaceOnUse" x1="1094.8625" y1="791.975" x2="446.23749999999995" y2="582.025" spreadMethod="pad">
<stop  offset="0%" stop-color="#1F55FF" stop-opacity="0"/>

<stop  offset="100%" stop-color="#51E7FF" stop-opacity="0.4980392156862745"/>
</linearGradient>

<linearGradient id="Gradient_10" gradientUnits="userSpaceOnUse" x1="413.56249999999994" y1="508.25" x2="779.5374999999999" y2="508.25" spreadMethod="pad">
<stop  offset="0%" stop-color="#1F55FF"/>

<stop  offset="100%" stop-color="#9CB4FF" stop-opacity="0.27058823529411763"/>
</linearGradient>

<g id="S_mbolo_1_0_Layer0_0_FILL">
<path fill="url(#Gradient_1)" stroke="none" d="
M 1260.7 674.2
L 1260.7 291.25 472.7 291.25 472.7 674.2 1260.7 674.2 Z"/>
</g>

<g id="S_mbolo_1_0_Layer0_1_FILL">
<path fill="url(#Gradient_2)" stroke="none" d="
M 740.45 676.25
Q 747.8798828125 578.53984375 685.65 441.3 647.858984375 358.02265625 597.6 289.3
L 472.7 289.3 472.7 670.75
Q 475.353125 673.5267578125 478 676.25
L 740.45 676.25 Z"/>
</g>

<g id="S_mbolo_1_0_Layer0_2_FILL">
<path fill="url(#Gradient_3)" stroke="none" d="
M 1261.65 524.05
Q 1255.689453125 521.212109375 1249.15 518.55 1157.35 481.2 1005.3 500.85 853.3 520.45 730.1 585.55 647.3515625 629.2572265625 610.15 676.3
L 1261.65 676.3 1261.65 524.05 Z"/>
</g>

<g id="S_mbolo_1_0_Layer0_3_FILL">
<path fill="url(#Gradient_4)" stroke="none" d="
M 989.4 676.25
Q 1043.6306640625 667.5025390625 1097.6 657.55 1188.23828125 640.837890625 1261.65 623.75
L 1261.65 444
Q 1169.319140625 444.1703125 1050.9 451.5 757.4859375 469.6095703125 471.7 521.45
L 471.7 676.25 989.4 676.25 Z"/>
</g>

<g id="S_mbolo_1_0_Layer0_4_FILL">
<path fill="url(#Gradient_5)" stroke="none" d="
M 820.45 289.35
Q 788.68359375 326.7373046875 757.15 372.75 656.684375 519.3916015625 612.4 675.3
L 1057.15 675.3
Q 1120.891015625 559.5005859375 1150.95 438.1 1172.128515625 352.6904296875 1170.45 289.35
L 820.45 289.35 Z"/>
</g>

<g id="S_mbolo_1_0_Layer0_5_FILL">
<path fill="url(#Gradient_6)" stroke="none" d="
M 1262.65 289.35
L 1239.15 289.35
Q 1180.746484375 344.607421875 1123.15 428.65 1040.792578125 548.8603515625 996.2 675.3
L 1262.65 675.3 1262.65 289.35 Z"/>
</g>

<g id="S_mbolo_1_0_Layer0_6_FILL">
<path fill="url(#Gradient_7)" stroke="none" d="
M 993.55 405.7
Q 1131.25 442.95 1262.65 444.05
L 1262.65 297.7 752.1 297.7
Q 840.05 364.2 993.55 405.7 Z"/>
</g>

<g id="S_mbolo_1_0_Layer0_7_FILL">
<path fill="url(#Gradient_8)" stroke="none" d="
M 794.45 675.3
Q 788.37265625 592.14140625 739.7 484.8 689.8134765625 374.868359375 618.2 290.3
L 472.7 290.3 472.7 607.3 470.65 607.3 470.65 648.7
Q 480.98515625 662.3115234375 491.8 675.3
L 794.45 675.3 Z"/>
</g>

<g id="S_mbolo_1_0_Layer0_8_FILL">
<path fill="url(#Gradient_9)" stroke="none" d="
M 1261.65 674.3
L 1261.65 596.5
Q 1176.9083984375 587.7333984375 1072.4 581.85 769.7587890625 564.580078125 470.7 580.65
L 470.7 674.3 1261.65 674.3 Z"/>
</g>

<g id="S_mbolo_1_0_Layer0_9_FILL">
<path fill="url(#Gradient_10)" stroke="none" d="
M 831.8 675.3
Q 821.4953125 600.755078125 779.55 508.25 722.9201171875 383.45859375 638.3 291.35
L 471.65 291.35 471.65 675.3 831.8 675.3 Z"/>
</g>
</defs>

<g transform="matrix( 1.0240020751953125, 0, 0, 1.0516815185546875, -494.85,-316.25) ">
<g transform="matrix( 1, 0, 0, 1, 0,0) ">
<use xlink:href="#S_mbolo_1_0_Layer0_0_FILL"/>
</g>

<g transform="matrix( 1, 0, 0, 1, 0,0) ">
<use xlink:href="#S_mbolo_1_0_Layer0_1_FILL"/>
</g>

<g transform="matrix( 1, 0, 0, 1, 0,0) ">
<use xlink:href="#S_mbolo_1_0_Layer0_2_FILL"/>
</g>

<g transform="matrix( 1, 0, 0, 1, 0,0) ">
<use xlink:href="#S_mbolo_1_0_Layer0_3_FILL"/>
</g>

<g transform="matrix( 1, 0, 0, 1, 0,0) ">
<use xlink:href="#S_mbolo_1_0_Layer0_4_FILL"/>
</g>

<g transform="matrix( 1, 0, 0, 1, 0,0) ">
<use xlink:href="#S_mbolo_1_0_Layer0_5_FILL"/>
</g>

<g transform="matrix( 1, 0, 0, 1, 0,-7) ">
<use xlink:href="#S_mbolo_1_0_Layer0_6_FILL"/>
</g>

<g transform="matrix( 1, 0, 0, 1, 0,0) ">
<use xlink:href="#S_mbolo_1_0_Layer0_7_FILL"/>
</g>

<g transform="matrix( 1, 0, 0, 1, 0,0) ">
<use xlink:href="#S_mbolo_1_0_Layer0_8_FILL"/>
</g>

<g transform="matrix( 1, 0, 0, 1, 0,0) ">
<use xlink:href="#S_mbolo_1_0_Layer0_9_FILL"/>
</g>
</g>
</svg>

<svg xmlns="http://www.w3.org/2000/svg" xmlns:xlink="http://www.w3.org/1999/xlink" preserveAspectRatio="none" width="788" height="383" viewBox="0 0 788 383"><defs><linearGradient id="a" gradientUnits="userSpaceOnUse" x1="559.513" y1="767.8" x2="1173.787" y2="197.6"><stop offset="1.176%" stop-color="#1F55FF"/><stop offset="88.627%" stop-color="#3C99FF"/></linearGradient><linearGradient id="b" gradientUnits="userSpaceOnUse" x1="319.662" y1="441.3" x2="685.638" y2="441.3"><stop offset="0%" stop-color="#1F55FF" stop-opacity="0"/><stop offset="100%" stop-color="#9CB4FF" stop-opacity=".271"/></linearGradient><linearGradient id="c" gradientUnits="userSpaceOnUse" x1="898" y1="850.737" x2="1005.3" y2="500.862"><stop offset="0%" stop-color="#1F55FF" stop-opacity="0"/><stop offset="100%" stop-color="#9CB4FF" stop-opacity=".502"/></linearGradient><linearGradient id="d" gradientUnits="userSpaceOnUse" x1="1097.588" y1="657.525" x2="457.813" y2="523.975"><stop offset="0%" stop-color="#1F55FF" stop-opacity="0"/><stop offset="100%" stop-color="#51E7FF" stop-opacity=".498"/></linearGradient><linearGradient id="e" gradientUnits="userSpaceOnUse" x1="998.138" y1="770.95" x2="757.162" y2="372.75"><stop offset="0%" stop-color="#1F55FF" stop-opacity="0"/><stop offset="100%" stop-color="#9CB4FF" stop-opacity=".322"/></linearGradient><linearGradient id="f" gradientUnits="userSpaceOnUse" x1="1364.138" y1="826.85" x2="1123.163" y2="428.65"><stop offset="0%" stop-color="#1F55FF" stop-opacity="0"/><stop offset="100%" stop-color="#9CB4FF" stop-opacity=".502"/></linearGradient><linearGradient id="g" gradientUnits="userSpaceOnUse" x1="1289.775" y1="46.712" x2="993.525" y2="405.688"><stop offset="0%" stop-color="#1F55FF" stop-opacity="0"/><stop offset="100%" stop-color="#9AD5FF" stop-opacity=".329"/></linearGradient><linearGradient id="h" gradientUnits="userSpaceOnUse" x1="373.713" y1="484.8" x2="739.688" y2="484.8"><stop offset="0%" stop-color="#1F55FF" stop-opacity="0"/><stop offset="100%" stop-color="#9CB4FF" stop-opacity=".271"/></linearGradient><linearGradient id="i" gradientUnits="userSpaceOnUse" x1="1094.862" y1="791.975" x2="446.237" y2="582.025"><stop offset="0%" stop-color="#1F55FF" stop-opacity="0"/><stop offset="100%" stop-color="#51E7FF" stop-opacity=".498"/></linearGradient><linearGradient id="j" gradientUnits="userSpaceOnUse" x1="413.562" y1="508.25" x2="779.537" y2="508.25"><stop offset="0%" stop-color="#1F55FF"/><stop offset="100%" stop-color="#9CB4FF" stop-opacity=".271"/></linearGradient><path fill="url(#a)" d="M1260.7 674.2V291.25h-788V674.2h788z" id="k"/><path fill="url(#b)" d="M740.45 676.25q7.43-97.71-54.8-234.95-37.79-83.277-88.05-152H472.7v381.45q2.653 2.777 5.3 5.5h262.45z" id="l"/><path fill="url(#c)" d="M1261.65 524.05q-5.96-2.838-12.5-5.5-91.8-37.35-243.85-17.7-152 19.6-275.2 84.7-82.748 43.707-119.95 90.75h651.5V524.05z" id="m"/><path fill="url(#d)" d="M989.4 676.25q54.23-8.747 108.2-18.7 90.638-16.712 164.05-33.8V444q-92.33.17-210.75 7.5-293.414 18.11-579.2 69.95v154.8h517.7z" id="n"/><path fill="url(#e)" d="M820.45 289.35q-31.766 37.387-63.3 83.4Q656.684 519.392 612.4 675.3h444.75q63.74-115.8 93.8-237.2 21.18-85.41 19.5-148.75h-350z" id="o"/><path fill="url(#f)" d="M1262.65 289.35h-23.5q-58.404 55.257-116 139.3-82.357 120.21-126.95 246.65h266.45V289.35z" id="p"/><path fill="url(#g)" d="M993.55 405.7q137.7 37.25 269.1 38.35V297.7H752.1q87.95 66.5 241.45 108z" id="q"/><path fill="url(#h)" d="M794.45 675.3q-6.077-83.16-54.75-190.5-49.887-109.932-121.5-194.5H472.7v317h-2.05v41.4q10.335 13.612 21.15 26.6h302.65z" id="r"/><path fill="url(#i)" d="M1261.65 674.3v-77.8q-84.742-8.767-189.25-14.65-302.64-17.27-601.7-1.2v93.65h790.95z" id="s"/><path fill="url(#j)" d="M831.8 675.3q-10.305-74.545-52.25-167.05-56.63-124.79-141.25-216.9H471.65V675.3H831.8z" id="t"/></defs><use xlink:href="#k" transform="matrix(1.024 0 0 1.05168 -494.85 -316.25)"/><use xlink:href="#l" transform="matrix(1.024 0 0 1.05168 -494.85 -316.25)"/><use xlink:href="#m" transform="matrix(1.024 0 0 1.05168 -494.85 -316.25)"/><use xlink:href="#n" transform="matrix(1.024 0 0 1.05168 -494.85 -316.25)"/><use xlink:href="#o" transform="matrix(1.024 0 0 1.05168 -494.85 -316.25)"/><use xlink:href="#p" transform="matrix(1.024 0 0 1.05168 -494.85 -316.25)"/><use xlink:href="#q" transform="matrix(1.024 0 0 1.05168 -494.85 -323.612)"/><use xlink:href="#r" transform="matrix(1.024 0 0 1.05168 -494.85 -316.25)"/><use xlink:href="#s" transform="matrix(1.024 0 0 1.05168 -494.85 -316.25)"/><use xlink:href="#t" transform="matrix(1.024 0 0 1.05168 -494.85 -316.25)"/></svg>
